X: 12603
T: Farewell To The Troubles Of The World
R: jig
M: 6/8
K: Dmajor
A|:dec dcA|GFG AFD|F2G AFD|F/G/AB =c2A|
dec dcA|GFG AFD|F2G A2G|1 FDC D2A:|2 FDC D2G||
FED F/G/AB|=cdB cAG|Afe deB|ABc d2=c|
B>BB d=cA|GFG AFD|F2G A2G|FDC DFA|
dec dcA|GFG AFD|F2G A2G|FDC D2||

